X:215
T:Reel 215
M:4/4
K:Gmaj
L:1/8
g2fg dcAc|dBGA BGAF|d2Bd gedc|BcAB Gc'ba|g2dB cBcd| (3efg fa gfdc|B2dB ABcA|dBcA BGG2|dggf gbag|fdde fgaf|dggf gbag|fdcA BGG2|dggf gbag|fgab c'2bc'| (3d'c'b c'a bgag|fdcA BGG2|
